X:1
T:Wash Your Sins Away
T:Wash Your Sins Away
T:James McW. Bonnar
T:William Leslie
T:Public Domain Courtesy of the Cyber Hymnal™
T:Public Domain Courtesy of the Cyber Hymnal™
C:James McW. Bonnar
Z:Public Domain
Z:Courtesy of the Cyber Hymnal™
%%score ( 1 2 ) ( 3 4 )
L:1/8
Q:1/4=105
M:4/4
K:E
V:1 treble 
V:2 treble 
V:3 bass 
V:4 bass 
V:1
 B,2 | [B,E]2 [EG]2 [EG]2 (FE) | [EA]2 [Ec]2 [Ec]2 [Ee]2 | [EB]2 [EB]2 [EB]2 (GE) | %4
w: 1.~From|Je- sus’ lips we *|hear the call, In|tones of ten- der- *|
w: 2.~He|would not have one *|sin- ner lost, For|well He knows what *|
w: 3.~Too|long you have re- *|mained in sin, For-|sake it, hate it— *|
w: 4.~And|some have erred and *|turned a- side, And,|Pe- ter- like their *|
 [EG]2 [DF]2 [DF]2 B,2 | [B,E]2 [EG]2 [EG]2 (FE) | [EA]2 [Ec]2 !fermata![Ee]2 (dc) | %7
w: ness to all, “Ye|bur- dened sin- ners, *|come to Me, Though *|
w: par- don cost; O|seek His mer- cy *|while you may, And *|
w: now be- gin; Tho’|Sa- tan long has *|held the sway, Yet *|
w: Lord de- nied; To|such He calls in *|love to- day, And *|
 [EB]2 [Ge]2 (BG) (EA) | [EG]2 [DF]2 E2 ||[M:6/8]"^Refrain" z B, | [EG]2 [EG] [EG]2 [EG] | %11
w: hea- vy la- * den *|you may be.”|||
w: Christ will wash * your *|sins a- way.|||
w: Christ can wash * your *|sins a- way.|||
w: seeks to wash * your *|sins a- way.|||
 (B2 A [DF]2) [DG] | [DA]2 [DA] [FA]2 [DA] | (c2 B [EG]2) [EB] | [Ee]2 [Ee] (ed)[Ec] | %15
w: ||||
w: ||||
w: ||||
w: ||||
 [EB]2 [DB] (BA)[^DG] | [CF]2 [Ec] [DB]2 [B,D] | !fermata![B,E]3 |] %18
w: |||
w: |||
w: |||
w: |||
V:2
 B,2 | x6 E2 | x8 | x6 E2 | x6 B,2 | x6 E2 | x6 E2 | x4 E2 E2 | x4 E2 ||[M:6/8] x B, | x6 | %11
 D3- x3 | x6 | E3- x3 | x3 E2 x | x3 =D2 x | x6 | x3 |] %18
V:3
 [E,G,]2 | [E,G,]2 [E,B,]2 [E,B,]2 (A,G,) | [C,A,]2 [A,,A,]2 [A,,A,]2 [C,A,]2 | %3
w: ~|~ ~ ~ ~ *|~ ~ ~ ~|
 [E,G,]2 [E,G,]2 [E,G,]2 (B,G,) | [B,,B,]2 [B,,B,]2 [B,,B,]2 [D,A,]2 | %5
w: ~ ~ ~ ~ *|~ ~ ~ ~|
 [E,G,]2 [E,B,]2 [E,B,]2 (A,G,) | [C,A,]2 [A,,A,]2 !fermata![A,,C]2 [A,,A,]2 | %7
w: ~ ~ ~ ~ *|~ ~ ~ ~|
 [E,G,]2 [E,B,]2 G,2 [A,C]2 | B,2 [B,,A,]2 [E,G,]2 ||[M:6/8] z [E,G,] | %10
w: ~ ~ ~ ~|~ ~ ~|He’ll|
 [E,B,]2 [E,B,] [E,B,]2 [E,B,] | ([B,,-B,]3 [B,,A,]2) [B,,G,] | [B,,F,]2 [B,,B,] [D,B,]2 [F,B,] | %13
w: wash your sins a-|way, * He’ll|wash your sins a-|
 (A,2 G, [E,B,]2) [G,B,] | [E,G,]2 [F,A,] [G,B,]2 A, | [G,B,]2 [F,A,] (G,A,)[E,B,] | %16
w: way, * * The|* blood of Christ,|the bleed- ing * Lamb,|
 [A,C]2 [A,,A,] [B,,A,]2 [B,,A,] | !fermata![E,G,]3 |] %18
w: Will wash your sins|a-|
V:4
 x2 | x6 E,2 | x8 | x6 E,2 | x8 | x6 E,2 | x8 | x8 | B,2 x4 ||[M:6/8] x2 | x6 | x6 | x6 | E,3- x3 | %14
 x5 A, | x3 E,2 x | x6 | x3 |] %18

